brandFactory_export/2.Regular/Chica_2Regular.svg

<?xml version="1.0" encoding="UTF-8"?>
<svg width="24px" height="24px" viewBox="0 0 24 24" version="1.1" xmlns="http://www.w3.org/2000/svg" xmlns:xlink="http://www.w3.org/1999/xlink">
    <title>2.Regular/Chica_2Regular</title>
    <g id="Symbols" stroke="none" stroke-width="1" fill="none" fill-rule="evenodd">
        <g id="2.Regular/Chica_2Regular" fill="#5CB615" fill-rule="nonzero">
            <path d="M11.2773109,1.80168067 C11.0352941,2.04033613 10.9109244,2.43697479 10.9109244,2.97815126 C10.9109244,4.04369748 11.3613445,4.49747899 12.4168067,4.49747899 C13.4756303,4.49747899 13.9260504,4.04369748 13.9260504,2.97815126 C13.9260504,2.43697479 13.8016807,2.04033613 13.5563025,1.80168067 C13.3176471,1.5697479 12.9344538,1.45210084 12.4168067,1.45210084 C11.8991597,1.4487395 11.5159664,1.56638655 11.2773109,1.80168067 L11.2773109,1.80168067 Z M12.4134454,5.94957983 C10.5747899,5.94957983 9.47563025,4.84033613 9.47563025,2.97815126 C9.47563025,2.0302521 9.74453782,1.28403361 10.2789916,0.759663866 C10.7966387,0.255462185 11.512605,0 12.4134454,0 C13.3142857,0 14.0302521,0.255462185 14.5478992,0.756302521 C15.0823529,1.28067227 15.3579832,2.02689076 15.3579832,2.97815126 C15.3579832,4.84033613 14.2554622,5.94957983 12.4134454,5.94957983 L12.4134454,5.94957983 Z M17.3411765,14.6890756 C17.3647059,14.6352941 17.4016807,14.5277311 17.3613445,14.4 L15.5327731,9.14621849 C15.5260504,9.13277311 15.4890756,9.04201681 15.4823529,9.02857143 C15.1697479,8.29243697 14.4605042,7.81848739 13.6739496,7.81848739 L11.1563025,7.81848739 C10.3697479,7.81848739 9.6605042,8.29243697 9.34789916,9.02857143 C9.34453782,9.03529412 9.30084034,9.1394958 9.30084034,9.14621849 L7.47226891,14.410084 C7.44201681,14.497479 7.4487395,14.6016807 7.49243697,14.692437 C7.51596639,14.7428571 7.57310924,14.8302521 7.6907563,14.8705882 C7.82184874,14.9176471 7.92268908,14.8840336 7.9697479,14.8605042 C8.02016807,14.8336134 8.11428571,14.7764706 8.15798319,14.6487395 L9.10588235,11.7848739 C9.22689076,11.405042 9.6302521,11.1932773 10.0067227,11.3176471 C10.312605,11.4151261 10.5042017,11.7008403 10.5042017,12.0067227 C10.5042017,12.0806723 10.4941176,12.1546218 10.4705882,12.2285714 L10.0336134,13.5966387 L9.24369748,16.5680672 L9.50252101,16.5680672 C9.89579832,16.5680672 10.2184874,16.8907563 10.2184874,17.2907563 L10.2386555,21.7915966 C10.2386555,21.8823529 10.2588235,22.1680672 10.5142857,22.1747899 C10.6016807,22.1647059 10.6285714,22.1546218 10.6352941,22.1478992 C10.6823529,22.1008403 10.7260504,21.9764706 10.7260504,21.7983193 L10.702521,17.297479 C10.702521,17.1058824 10.7764706,16.9210084 10.9109244,16.7831933 C11.0453782,16.6453782 11.2268908,16.5680672 11.4184874,16.5680672 L13.4252101,16.5680672 C13.6168067,16.5680672 13.7983193,16.6453782 13.9327731,16.7831933 C14.0672269,16.9210084 14.1445378,17.1058824 14.1411765,17.297479 L14.1210084,21.8016807 C14.1210084,21.8016807 14.1243697,22.1714286 14.312605,22.1781513 C14.4168067,22.1714286 14.4907563,22.1579832 14.5042017,22.1445378 C14.5277311,22.1210084 14.5747899,22.0168067 14.5747899,21.7983193 L14.5983193,17.2907563 C14.6016807,16.8907563 14.9210084,16.5680672 15.3142857,16.5680672 L15.5697479,16.5680672 L14.7731092,13.5764706 L14.3428571,12.2285714 C14.3193277,12.1546218 14.3092437,12.0806723 14.3092437,12.0067227 C14.3092437,11.7008403 14.5008403,11.4151261 14.8067227,11.3176471 C15.1798319,11.1932773 15.5865546,11.405042 15.707563,11.7848739 L16.6588235,14.6554622 C16.702521,14.7764706 16.7932773,14.8369748 16.8470588,14.8638655 C16.897479,14.887395 16.994958,14.9210084 17.1092437,14.8773109 C17.2605042,14.8302521 17.3176471,14.7394958 17.3411765,14.6890756 L17.3411765,14.6890756 Z M18.7159664,13.9260504 C18.8739496,14.3966387 18.8403361,14.8941176 18.6285714,15.3310924 C18.4168067,15.7647059 18.0537815,16.087395 17.6033613,16.2386555 C17.4151261,16.3092437 17.2168067,16.3596639 17.0117647,16.3428571 L17.2134454,17.0991597 C17.2705882,17.3176471 17.2268908,17.5495798 17.0890756,17.7277311 C16.9546218,17.9092437 16.7428571,18.0134454 16.5210084,18.0134454 L16.0403361,18.0134454 L16.0201681,21.794958 C16.0201681,22.3697479 15.8487395,22.8470588 15.5193277,23.1731092 C15.3109244,23.3815126 14.9378151,23.6201681 14.3394958,23.6201681 L14.2957983,23.6201681 C13.3714286,23.6033613 12.6991597,22.8336134 12.6991597,21.7915966 L12.7159664,18.0134454 L12.1512605,18.0134454 L12.1714286,21.7882353 C12.1714286,22.3529412 11.9865546,22.8470588 11.6470588,23.1798319 C11.3546218,23.4689076 10.9714286,23.6201681 10.5344538,23.6201681 L10.4907563,23.6201681 C9.53277311,23.5966387 8.81344538,22.810084 8.81344538,21.7915966 L8.79663866,18.0134454 L8.31596639,18.0134454 C8.0907563,18.0134454 7.88235294,17.9092437 7.74789916,17.7277311 C7.61008403,17.5495798 7.56638655,17.3176471 7.62352941,17.0991597 L7.82521008,16.3394958 L7.82184874,16.3394958 C7.61680672,16.3394958 7.41512605,16.302521 7.22016807,16.2319328 C6.78655462,16.0840336 6.42352941,15.7613445 6.21176471,15.3310924 C5.99663866,14.8907563 5.96302521,14.3966387 6.1210084,13.9327731 L7.95294118,8.66218487 C7.97647059,8.58823529 8.00672269,8.51092437 8.05378151,8.42016807 C8.57815126,7.18655462 9.80504202,6.36638655 11.1663866,6.36638655 L13.6840336,6.36638655 C15.0453782,6.36638655 16.2722689,7.18655462 16.810084,8.45378151 C16.8369748,8.50756303 16.8705882,8.58487395 16.9008403,8.68571429 L18.7159664,13.9260504 Z" id="Chica_2Regular"></path>
        </g>
    </g>
</svg>

<svg width="24" height="24" viewBox="0 0 24 24" xmlns="http://www.w3.org/2000/svg"><path d="M11.277 1.802c-.242.238-.366.635-.366 1.176 0 1.066.45 1.52 1.506 1.52 1.059 0 1.51-.454 1.51-1.52 0-.541-.125-.938-.37-1.176-.24-.232-.623-.35-1.14-.35-.518-.003-.901.114-1.14.35zm1.136 4.148c-1.838 0-2.937-1.11-2.937-2.972 0-.948.269-1.694.803-2.218.518-.505 1.234-.76 2.134-.76.901 0 1.617.255 2.135.756.534.525.81 1.27.81 2.222 0 1.862-1.103 2.972-2.945 2.972zm4.928 8.74a.407.407 0 00.02-.29l-1.828-5.254c-.007-.013-.044-.104-.05-.117a1.967 1.967 0 00-1.81-1.21h-2.517a1.967 1.967 0 00-1.855 1.327L7.472 14.41a.377.377 0 00.02.282.34.34 0 00.199.179.351.351 0 00.279-.01.373.373 0 00.188-.212l.948-2.864a.713.713 0 01.9-.467.72.72 0 01.498.689c0 .074-.01.148-.033.222l-.437 1.368-.79 2.971h.259a.72.72 0 01.715.723l.02 4.5c0 .091.02.377.276.384.088-.01.115-.02.121-.027.047-.047.091-.172.091-.35l-.023-4.5c0-.192.073-.377.208-.515a.707.707 0 01.507-.215h2.007a.722.722 0 01.716.73l-.02 4.504s.003.37.192.376a.505.505 0 00.191-.033c.024-.024.07-.128.07-.347l.024-4.507a.722.722 0 01.716-.723h.256l-.797-2.992-.43-1.347a.726.726 0 01-.034-.222.715.715 0 011.398-.222l.952 2.87a.376.376 0 00.188.209.33.33 0 00.262.013.354.354 0 00.232-.188zm1.375-.764c.158.47.124.968-.087 1.405a1.76 1.76 0 01-1.026.908c-.188.07-.386.12-.591.104l.201.756a.725.725 0 01-.124.629.707.707 0 01-.568.285h-.48l-.02 3.782c0 .575-.172 1.052-.502 1.378-.208.209-.581.447-1.18.447h-.043c-.925-.017-1.597-.786-1.597-1.828l.017-3.779h-.565l.02 3.775c0 .565-.184 1.06-.524 1.392-.292.289-.676.44-1.113.44h-.043c-.958-.023-1.678-.81-1.678-1.828l-.016-3.779h-.481a.702.702 0 01-.568-.285.725.725 0 01-.124-.629l.201-.76h-.003a1.76 1.76 0 01-.602-.107 1.768 1.768 0 01-1.008-.9 1.82 1.82 0 01-.091-1.4l1.832-5.27c.023-.074.054-.151.1-.242a3.39 3.39 0 013.113-2.054h2.518a3.4 3.4 0 013.126 2.088c.027.054.06.13.09.232l1.816 5.24z" fill="#5CB615" fill-rule="nonzero"/></svg>
